X: 1
T: Lady Mary Montagus Reel   [Bb]
O: 1779
R: reel
S: Image from Darlene Wigton, June 2017
Z: 2017 John Chambers <jc:trillian.mit.edu>
M: C|
L: 1/8
K: Bb
% - - - - - - - - - - - - - - - - - - - - - - - - - - - - -
V: 1 brace=2 staves=2
|:\
"Bb"Bdfd "Eb"ge"Bb"fd | "Bb"Bdfd "F7"cAcA |\
"Bb"Bdfd "Eb"ge"Bb"fd | "Cm"ce"F7"cA "Bb"B2B2 :|
|:\
"Bb"F2DF FDFD | "Bb"F2DF B2d2 |\
"Bb"F2DF FDFD | "Cm"ce"F7"cA "Bb"B2B2 :| [g2D2]
% - - - - - - - - - - - - - - - - - - - - - - - - - - - - -
V: 2 clef=bass middle=d
|: b2B2 e2B2 | b2B2 f2F2 | B2b2 e2B2 | e2f2 B2b2 :|
|: B2B2 B2B2 | Bdfb d2B2 | B2B2 B2B2 | e2f2 B2b2 :| [b2F2]
% - - - - - - - - - - - - - - - - - - - - - - - - - - - - -
%%begintext align
%%   Right hands across .|
%% Left hands back again :|
%% cross over one Cu. and turn half round :|.
%% Right and Left at top :|:
%%endtext

%%sep 1 1 500

